icons/deviantart.svg

<svg width="24" height="24" viewBox="0 0 24 24" fill="none" xmlns="http://www.w3.org/2000/svg">
<path fill-rule="evenodd" clip-rule="evenodd" d="M14.1588 2.45931C14.3428 2.17305 14.6597 2 15 2H18C18.5523 2 19 2.44772 19 3V7C19 7.19175 18.9449 7.37945 18.8412 7.54074L15.9746 12H18C18.5523 12 19 12.4477 19 13V17C19 17.5523 18.5523 18 18 18H12.117L9.84122 21.5407C9.65723 21.827 9.34029 22 9 22H6C5.44772 22 5 21.5523 5 21V17C5 16.8083 5.05513 16.6206 5.15881 16.4593L8.02537 12H6C5.44772 12 5 11.5523 5 11V7C5 6.44772 5.44772 6 6 6H11.883L14.1588 2.45931ZM15.546 4L13.2702 7.54069C13.0862 7.82695 12.7693 8 12.429 8H7V10H9.857C10.2228 10 10.5594 10.1997 10.7347 10.5208C10.91 10.8419 10.896 11.233 10.6982 11.5407L7 17.2937V20H8.454L10.7298 16.4593C10.9138 16.173 11.2307 16 11.571 16H17V14H14.143C13.7772 14 13.4406 13.8003 13.2653 13.4792C13.09 13.1581 13.104 12.767 13.3018 12.4593L17 6.70631V4H15.546Z" fill="black"/>
</svg>

<svg
  width="24"
  height="24"
  viewBox="0 0 24 24"
  xmlns="http://www.w3.org/2000/svg"
>
  <path
    fill-rule="evenodd"
    clip-rule="evenodd"
    d="M14.159 2.46A1 1 0 0 1 15 2h3a1 1 0 0 1 1 1v4a1 1 0 0 1-.159.54L15.975 12H18a1 1 0 0 1 1 1v4a1 1 0 0 1-1 1h-5.883l-2.276 3.54A1 1 0 0 1 9 22H6a1 1 0 0 1-1-1v-4a1 1 0 0 1 .159-.54L8.025 12H6a1 1 0 0 1-1-1V7a1 1 0 0 1 1-1h5.883l2.276-3.54zM15.546 4L13.27 7.54a1 1 0 0 1-.841.46H7v2h2.857a1 1 0 0 1 .841 1.54L7 17.295V20h1.454l2.276-3.54a1 1 0 0 1 .841-.46H17v-2h-2.857a1 1 0 0 1-.841-1.54L17 6.705V4h-1.454z"
  />
</svg>
